src/assets/icons/arrows,fancy,repeat.svg

<svg width="48" height="48" viewBox="0 0 48 48" fill="none" xmlns="http://www.w3.org/2000/svg">
<path fill-rule="evenodd" clip-rule="evenodd" d="M15.4138 7.76471H41C42.1046 7.76471 43 8.66014 43 9.76471V22C43 23.1046 42.1046 24 41 24H36.7241C35.6196 24 34.7241 23.1046 34.7241 22V16.8824C34.7241 16.3301 34.2764 15.8824 33.7241 15.8824H15.4138V20.4484C15.4138 21.3068 14.4036 21.7662 13.7566 21.2022L3.86448 12.5773C3.40738 12.1787 3.40738 11.4683 3.86448 11.0698L13.7566 2.44489C14.4036 1.88081 15.4138 2.34029 15.4138 3.19862V7.76471Z" fill="black"/>
<path opacity="0.6" fill-rule="evenodd" clip-rule="evenodd" d="M32.5862 40.2353H7C5.89543 40.2353 5 39.3399 5 38.2353V26C5 24.8954 5.89543 24 7 24H11.2759C12.3804 24 13.2759 24.8954 13.2759 26V31.1176C13.2759 31.6699 13.7236 32.1176 14.2759 32.1176H32.5862V27.5516C32.5862 26.6932 33.5964 26.2338 34.2434 26.7978L44.1355 35.4227C44.5926 35.8213 44.5926 36.5317 44.1355 36.9302L34.2434 45.5551C33.5964 46.1192 32.5862 45.6597 32.5862 44.8014V40.2353Z" fill="black"/>
<path opacity="0.2" fill-rule="evenodd" clip-rule="evenodd" d="M32.5862 40.2353H7C5.89543 40.2353 5 39.3399 5 38.2353V26C5 24.8954 5.89543 24 7 24H11.2759C12.3804 24 13.2759 24.8954 13.2759 26V31.1176C13.2759 31.6699 13.7236 32.1176 14.2759 32.1176H32.5862V27.5516C32.5862 26.6932 33.5964 26.2338 34.2434 26.7978L44.1355 35.4227C44.5926 35.8213 44.5926 36.5317 44.1355 36.9302L34.2434 45.5551C33.5964 46.1192 32.5862 45.6597 32.5862 44.8014V40.2353Z" fill="black"/>
</svg>

<svg xmlns="http://www.w3.org/2000/svg" width="48" height="48" fill="none" viewBox="0 0 48 48">
  <path fill="#000" fill-rule="evenodd" d="M15.414 7.765H41a2 2 0 012 2V22a2 2 0 01-2 2h-4.276a2 2 0 01-2-2v-5.118a1 1 0 00-1-1h-18.31v4.566c0 .859-1.01 1.318-1.657.754l-9.893-8.625a1 1 0 010-1.507l9.893-8.625c.647-.564 1.657-.105 1.657.754v4.566z" clip-rule="evenodd"/>
  <path fill="#000" fill-rule="evenodd" d="M32.586 40.235H7a2 2 0 01-2-2V26a2 2 0 012-2h4.276a2 2 0 012 2v5.118a1 1 0 001 1h18.31v-4.566c0-.859 1.01-1.318 1.657-.754l9.892 8.625a1 1 0 010 1.507l-9.892 8.625c-.647.564-1.657.105-1.657-.754v-4.566z" clip-rule="evenodd" opacity=".6"/>
  <path fill="#000" fill-rule="evenodd" d="M32.586 40.235H7a2 2 0 01-2-2V26a2 2 0 012-2h4.276a2 2 0 012 2v5.118a1 1 0 001 1h18.31v-4.566c0-.859 1.01-1.318 1.657-.754l9.892 8.625a1 1 0 010 1.507l-9.892 8.625c-.647.564-1.657.105-1.657-.754v-4.566z" clip-rule="evenodd" opacity=".2"/>
</svg>
